static/assets/images/networks/meter.svg

<svg width="256" height="256" viewBox="0 0 256 256" fill="none" xmlns="http://www.w3.org/2000/svg">
<path d="M128 256C198.692 256 256 198.692 256 128C256 57.3075 198.692 0 128 0C57.3075 0 0 57.3075 0 128C0 198.692 57.3075 256 128 256Z" fill="white"/>
<path fill-rule="evenodd" clip-rule="evenodd" d="M224.702 116.355C225.154 120.165 225.406 124.052 225.406 128C225.406 181.565 181.907 225 128.237 225C89.1592 225 55.4806 201.972 40.0475 168.766L55.5935 160.956C68.1508 188.497 95.9528 207.638 128.237 207.638C172.288 207.638 208.014 171.987 208.014 128C208.014 127.185 208.001 126.37 207.976 125.556L224.702 116.355ZM128.237 31C169.162 31 204.184 56.2592 218.499 92.0233L201.873 97.313C189.844 68.5689 161.402 48.3619 128.237 48.3619C84.1863 48.3619 48.4611 84.013 48.4611 128C48.4611 128.539 48.4735 129.09 48.4861 129.63L32.2119 142.917C31.4584 138.054 31.0692 133.077 31.0692 128C31.0817 74.4232 74.5802 31 128.237 31Z" fill="#010F36"/>
<path fill-rule="evenodd" clip-rule="evenodd" d="M20 166.789L115.034 89.1939L111.091 121.46L166.556 90.084L163.743 120.721L236.5 97.593L137.825 151.847L145.197 120.971L88.1864 154.328L91.9535 130.649L20 166.789Z" fill="#010F36"/>
</svg>

<svg xmlns="http://www.w3.org/2000/svg" fill="none" viewBox="0 0 256 256"><path fill="#fff" d="M128 256c70.692 0 128-57.308 128-128S198.692 0 128 0 0 57.308 0 128s57.308 128 128 128"/><path fill="#010F36" fill-rule="evenodd" d="M224.702 116.355c.452 3.81.704 7.697.704 11.645 0 53.565-43.499 97-97.169 97-39.078 0-72.756-23.028-88.19-56.234l15.547-7.81c12.557 27.541 40.359 46.682 72.643 46.682 44.051 0 79.777-35.651 79.777-79.638q0-1.223-.038-2.444zM128.237 31c40.925 0 75.947 25.26 90.262 61.023l-16.626 5.29c-12.029-28.744-40.471-48.951-73.636-48.951-44.05 0-79.776 35.651-79.776 79.638 0 .539.013 1.09.025 1.63l-16.274 13.287A97 97 0 0 1 31.069 128c.013-53.577 43.511-97 97.168-97" clip-rule="evenodd"/><path fill="#010F36" fill-rule="evenodd" d="m20 166.789 95.034-77.595-3.943 32.266 55.465-31.376-2.813 30.637L236.5 97.593l-98.675 54.254 7.372-30.876-57.01 33.357 3.767-23.679z" clip-rule="evenodd"/></svg>
